X: 42685
T: Whistler At The Wake, The
R: jig
M: 6/8
K: Dmajor
DE|:F2A AFA|B2B Eae|fed ~B3|AFE EFE|
DFA AFA|B2B eae|fed BdB|AFD D3:|
fed ~B3|AFD ~E3|DEF ~A3|~A3 ~A3|
fed ~B3|afe e2a|fed BdB|AFD D3|
fed B2d|AFD ~E3|DEF ABF|ABF ~A3|
fed ~b3|afe eae|fed BdB|AFD D3||

